HTML/assets/check.svg

<?xml version="1.0" encoding="UTF-8"?>
<svg width="24px" height="24px" viewBox="0 0 24 24" version="1.1" xmlns="http://www.w3.org/2000/svg" xmlns:xlink="http://www.w3.org/1999/xlink">
    <!-- Generator: sketchtool 49 (51002) - http://www.bohemiancoding.com/sketch -->
    <title>303A3B3B-FDE7-40D2-B913-56F4BBBD15DD</title>
    <desc>Created with sketchtool.</desc>
    <defs>
        <path d="M20.0000623,11.0762866 C20.0000623,10.5240018 20.4477775,10.0762866 21.0000623,10.0762866 C21.552347,10.0762866 22.0000623,10.5240018 22.0000623,11.0762866 L22.0000621,12.0068583 C21.9972767,16.8784128 18.7905855,21.1678926 14.1189498,22.5491494 C9.44731406,23.9304062 4.42359501,22.0744017 1.7721127,17.9876313 C-0.879369607,13.9008609 -0.526988104,8.55686121 2.63816372,4.8536377 C5.80331554,1.15041418 11.027246,-0.0298638476 15.4770621,1.95285834 C15.9815346,2.17763814 16.2082703,2.76881393 15.9834905,3.27328641 C15.7587107,3.77775889 15.1675349,4.0044946 14.6630624,3.7797148 C11.0223038,2.15748756 6.74817888,3.12316958 4.15850921,6.15307973 C1.56883953,9.18298988 1.28052739,13.5553533 3.44992201,16.8990745 C5.61931663,20.2427957 9.72963221,21.7613449 13.5518796,20.6312257 C17.374127,19.5011065 19.9977835,15.9915321 20.0000623,12.0062866 L20.0000623,11.0762866 Z M11.0000623,12.592073 L21.2929555,2.29917979 C21.6834798,1.9086555 22.3166448,1.9086555 22.7071691,2.29917979 C23.0976933,2.68970408 23.0976933,3.32286906 22.7071691,3.71339335 L11.7071691,14.7133934 C11.3166448,15.1039176 10.6834798,15.1039176 10.2929555,14.7133934 L7.29295549,11.7133934 C6.9024312,11.3228691 6.9024312,10.6897041 7.29295549,10.2991798 C7.68347978,9.9086555 8.31664476,9.9086555 8.70716905,10.2991798 L11.0000623,12.592073 Z" id="path-1"></path>
    </defs>
    <g id="Symbols" stroke="none" stroke-width="1" fill="none" fill-rule="evenodd">
        <g id="Icons-/-24px-/-Check">
            <mask id="mask-2" fill="white">
                <use xlink:href="#path-1"></use>
            </mask>
            <use id="Combined-Shape" fill="#000000" fill-rule="nonzero" xlink:href="#path-1"></use>
            <g id="UI/Color/Flat/Black" mask="url(#mask-2)" fill="#000000">
                <rect id="Base" x="0" y="0" width="24" height="24"></rect>
            </g>
        </g>
    </g>
</svg>

<?xml version="1.0" encoding="utf-8"?>
<!-- Generator: Adobe Illustrator 16.0.0, SVG Export Plug-In . SVG Version: 6.00 Build 0)  -->
<!DOCTYPE svg PUBLIC "-//W3C//DTD SVG 1.1//EN" "http://www.w3.org/Graphics/SVG/1.1/DTD/svg11.dtd">
<svg version="1.1" id="Layer_1" xmlns="http://www.w3.org/2000/svg" xmlns:xlink="http://www.w3.org/1999/xlink" x="0px" y="0px"
	 width="24px" height="24px" viewBox="0 0 24 24" enable-background="new 0 0 24 24" xml:space="preserve">
<title>303A3B3B-FDE7-40D2-B913-56F4BBBD15DD</title>
<desc>Created with sketchtool.</desc>
<g id="Symbols">
	<g id="Icons-_x2F_-24px-_x2F_-Check">
		<g id="Combined-Shape">
			<path id="path-1_1_" fill="#00B79D" d="M20,11.076c0-0.552,0.447-1,1-1s1,0.448,1,1v0.931c-0.003,4.872-3.209,9.161-7.881,10.542
				c-4.672,1.382-9.695-0.475-12.347-4.561C-0.879,13.9-0.527,8.557,2.638,4.854s8.389-4.883,12.838-2.901
				c0.505,0.225,0.732,0.816,0.507,1.321c-0.225,0.504-0.815,0.731-1.32,0.506C11.022,2.158,6.748,3.123,4.159,6.153
				c-2.59,3.03-2.878,7.401-0.709,10.745c2.169,3.344,6.28,4.863,10.102,3.732c3.822-1.13,6.446-4.639,6.448-8.625V11.076z
				 M11,12.592L21.293,2.299c0.391-0.391,1.023-0.391,1.414,0c0.391,0.39,0.391,1.023,0,1.414l-11,11
				c-0.391,0.391-1.023,0.391-1.414,0l-3-3c-0.391-0.391-0.391-1.024,0-1.414c0.391-0.391,1.023-0.391,1.414,0L11,12.592z"/>
		</g>
		<defs>
			<filter id="Adobe_OpacityMaskFilter" filterUnits="userSpaceOnUse" x="0" y="0" width="24" height="24">
				<feColorMatrix  type="matrix" values="1 0 0 0 0  0 1 0 0 0  0 0 1 0 0  0 0 0 1 0"/>
			</filter>
		</defs>
		<mask maskUnits="userSpaceOnUse" x="0" y="0" width="24" height="24" id="mask-2">
			<g filter="url(#Adobe_OpacityMaskFilter)">
				<path id="path-1" fill="#FFFFFF" d="M20,11.076c0-0.552,0.447-1,1-1s1,0.448,1,1v0.931c-0.003,4.872-3.209,9.161-7.881,10.542
					c-4.672,1.382-9.695-0.475-12.347-4.561C-0.879,13.9-0.527,8.557,2.638,4.854s8.389-4.883,12.838-2.901
					c0.505,0.225,0.732,0.816,0.507,1.321c-0.225,0.504-0.815,0.731-1.32,0.506C11.022,2.158,6.748,3.123,4.159,6.153
					c-2.59,3.03-2.878,7.401-0.709,10.745c2.169,3.344,6.28,4.863,10.102,3.732c3.822-1.13,6.446-4.639,6.448-8.625V11.076z
					 M11,12.592L21.293,2.299c0.391-0.391,1.023-0.391,1.414,0c0.391,0.39,0.391,1.023,0,1.414l-11,11
					c-0.391,0.391-1.023,0.391-1.414,0l-3-3c-0.391-0.391-0.391-1.024,0-1.414c0.391-0.391,1.023-0.391,1.414,0L11,12.592z"/>
			</g>
		</mask>
		<g id="UI_x2F_Color_x2F_Flat_x2F_Black" mask="url(#mask-2)">
			<rect id="Base" fill="#00B79D" width="24" height="24"/>
		</g>
	</g>
</g>
</svg>
